images/footer/social/pint.svg

<svg width="18" height="17" viewBox="0 0 18 17" fill="none" xmlns="http://www.w3.org/2000/svg">
<g clip-path="url(#clip0)">
<path d="M8.22857 12.2833C7.97143 12.185 7.84286 11.6937 7.45714 11.7919C6.94286 13.5607 6.3 15.6243 5.27143 17H3.72857H3.85714C3.6 16.3122 3.72857 14.9364 3.85714 14.1503C4.24286 12.3815 5.52857 10.0232 5.52857 8.35263C5.52857 7.66477 5.01429 6.87864 5.14286 5.99425C5.4 4.422 8.35714 3.04627 9.25714 4.81506C10.4143 6.87864 6.81429 9.33529 8.87143 10.711C9.25714 11.0058 10.2857 11.2023 11.1857 11.1041C15.3 10.4162 15.8143 3.8324 12.4714 2.35841C7.58571 0.0982978 2.18571 3.5376 2.57143 7.07518C2.82857 8.4509 4.62857 9.13876 3.08571 10.4162C0.771429 9.63009 0 8.4509 0 6.38732C0 2.26015 5.14286 -0.491298 10.8 3.18214e-05C14.4 0.29483 17.4857 2.55495 18 5.10986C18.2571 7.36997 17.3571 10.2197 15.1714 11.6937C13.5 12.7746 10.0286 13.3642 8.22857 12.2833Z" fill="white"/>
</g>
<defs>
<clipPath id="clip0">
<rect width="18" height="17" fill="white"/>
</clipPath>
</defs>
</svg>

<svg width="18" height="17" fill="none" xmlns="http://www.w3.org/2000/svg"><g clip-path="url(#clip0)"><path d="M8.229 12.283c-.258-.098-.386-.59-.772-.491C6.943 13.56 6.3 15.624 5.271 17H3.73h.128c-.257-.688-.128-2.064 0-2.85.386-1.768 1.672-4.127 1.672-5.797 0-.688-.515-1.474-.386-2.359.257-1.572 3.214-2.948 4.114-1.179 1.157 2.064-2.443 4.52-.386 5.896.386.295 1.415.491 2.315.393 4.114-.688 4.628-7.272 1.285-8.746-4.885-2.26-10.285 1.18-9.9 4.717.258 1.376 2.058 2.064.515 3.341C.77 9.63 0 8.451 0 6.387 0 2.26 5.143-.49 10.8 0c3.6.295 6.686 2.555 7.2 5.11.257 2.26-.643 5.11-2.829 6.584-1.671 1.08-5.142 1.67-6.942.59z" fill="#fff"/></g><defs><clipPath id="clip0"><path fill="#fff" d="M0 0h18v17H0z"/></clipPath></defs></svg>
